X: 252
T: Lady Charlotte Rawdon's Strathspey
R: strathspey
B: William Shepherd "2nd Collection" 1800 p.25 #2
F: http://imslp.org/wiki/File:PMLP73094-Shepherd_Collections_HMT.pdf
C: William Shepherd (17??-1812)
Z: 2012 John Chambers <jc:trillian.mit.edu>
M: C|
L: 1/8
K: Em
F |\
E<BB>G F<dF>D | E<BB>E G>ATB2 |\
d>f^c>e d>DF>A | B>EG>E F/G/A TB2 |
E>BTG>B D>ATF>A | E>BG>B E>GB>^c |\
d>f^c>e d>DF>A | B>EG>E F/G/A TBf ||
Tg>ef>d A>dF>D | g>ef>d B>^de>f |\
f<af<g | d>AFD | B>EG>E F/G/A B2 |
g>ef>d A>dF>D | g>ef>d B>^de>f |\
g>be>g B^c/d/ F>D | B>EG>E F/G/A TB2 |]
